!!!CDT:
!!!PTL: L'ottavo libro de'madrigali a cinque voci
!!!PPP: Venice
!!!PPR: Ricciardo Amadino
!!!PDT: 1603
!!!PUB-format:
!!!RISM: I 10
!!!AGN: Madrigal
!!!SCT: Tsg16061b
!!!SCA: Tsg16061b
!!!original-voices: 5
!!!extant-voices: 2
!!!complete: N
!!!final: G
!!!COM: Il Verso, Antonio
!!!OTL: Chiudesti i lumi Armida: il cielo avaro
**kern	**text	**kern	**text
*part2	*part2	*part1	*part1
*staff2	*staff2	*staff1	*staff1
*I"Quinto	*	*I"Canto	*
*I'V	*	*I'C	*
*oclefC4	*	*oclefC1	*
*clefGv2	*	*clefG2	*
*k[b-]	*	*k[b-]	*
*F:	*	*F:	*
*omet(C)	*	*omet(C)	*
*M4/2	*	*M4/2	*
=1	=1	=1	=1
1B-y	Chiu-	1g	Chiu-
2.BnX	-de-	2.g#X	-de-
4BnX	-sti i	4g#X	-sti i
=2	=2	=2	=2
4d	lu-	4a	lu-
4d	-mi, Ar-	4a	-mi, Ar-
2c#X	-mi-	2a	-mi-
4d	-da: il	4a	-da: il
2BnX	Cie-	2gnXi	Cie-
4cnXi	-lo a-	4g	-lo a-
=3	=3	=3	=3
2A	-va-	2f#X	-va-
2A	-ro	2f#X	-ro
2r	.	2g	In-
2d	In-	4g	-vi-
.	.	4g	-diò'l
=4	=4	=4	=4
2A	-vi-	2.a	con-
2F	-diò'l	.	.
.	.	4dd	-for-
2.F	con-	2dd	-to a i
.	.	2dd	tuoi
4F	-for-	.	.
=5	=5	=5	=5
2G	-to a i	2b-y	mar-
2G	tuoi	2g	-tì-
2A	mar-	2f	-ri,
2B-y	-tì-	2f	a i
=6	=6	=6	=6
2c	.	2cc	tuoi
2d	.	1b-y	mar-
2c	-ri,	.	.
2F	a i	[2a	-tì-
=7	=7	=7	=7
2F#X	tuoi	2a]	.
2G	mar-	2.g	.
2A	-tì-	.	.
.	.	8f#XL	.
.	.	8eJ	.
2D	-ri.	2f#X	.
=8	=8	=8	=8
1r	.	1g	-ri.
4e-X	A-	2r	.
4e-X	-pri,	.	.
[2e-X	mi-	4b-y	A-
.	.	4b-y	-pri,
=9	=9	=9	=9
4e-]	.	2b-y	mi-
8d	-se-	.	.
8c	-ra,	.	.
2d	gli oc-	4a	-se-
.	.	4g	-ra,
4c	-chi; il	2a	gli oc-
2d	pian-	.	.
.	.	4g	-chi; il
4c	-to a-	[4a	pian-
=10	=10	=10	=10
2B-y	-ma-	4a]	.
.	.	4g	-to a-
2A	-ro	4f	-ma-
.	.	4e	-ro
4r	.	4r	.
4A	Ne	4dd	Ne
4.B-y	gli oc-	[2dd	gl'oc-
8c	-chi al	.	.
=11	=11	=11	=11
4d	tuo	4dd]	.
4d	ne-	4dd	-chi al
2d	-mi-	4dd	tuo
.	.	4dd	ne-
4e-X	-co or	2cc	-mi-
8d	che	.	.
8c	non	.	.
[2B-y	mi-	[2ee-X	-co or
=12	=12	=12	=12
4B-]	.	4ee-]	.
4F	-ri,	8dd	che
.	.	8cc	non
2.f	or	1b-y	mi-
8enXi	che	.	.
8d	non	.	.
2c	mi-	2a	.
=13	=13	=13	=13
1d	-ri?	1b-y	-ri?
2r	.	2r	.
[2f	O	[2dd	O
=14	=14	=14	=14
4f]	.	4dd]	.
8f	s'u-	8cc	s'u-
8f	-dir	8cc	-dir
4f	tu'l	4cc	tu'l
4F	po-	4a	po-
8GL	-tes-	4.b-y	-tes-
8A	.	.	.
8B-y	.	.	.
8GJ	.	8cc	.
2d	.	2a	.
=15	=15	=15	=15
2d	-si,	2a	-si,
2r	.	4r	.
.	.	4dd	o
1r	.	4cc	co-
.	.	4b-y	-me
.	.	4a	ca-
.	.	8a	-ro
.	.	8e	T'ad-
=16	=16	=16	=16
0r	.	4f#X	-dol-
.	.	4g	-ci-
.	.	2a	-reb-
.	.	4g	-re il
.	.	2b-y	suon
.	.	4a	de'
=17	=17	=17	=17
1r	.	4.g	suoi
.	.	8fnXi	so-
.	.	2e	-spi-
4r	.	4d	-re,
4f	T'ad-	4a	T'ad-
4e	-dol-	4a	-dol-
4d	-ci-	4g	-ci-
=18	=18	=18	=18
2.c#X	-reb-	2.a	-reb-
4d	-be il	4f	-be il
2A	suon	2a	suon
2cnX	de'	2a	de'
=19	=19	=19	=19
2B-y	suoi	2b-y	suoi
4r	.	2b-y	so-
4D	so-	.	.
1A	-spi-	1a	-spi-
=20	=20	=20	=20
2A	-re!	2f#X	-ri!
2A	Dà	2f#X	Dà
2.B-y	quan-	2.g	quan-
4B-y	-to ei	4dd	-to ei
=21	=21	=21	=21
4A	puo-	4cc	puo-
4G	-te; ei	4b-y	-te; ei
2.F#X	pren-	2.a	pren-
4G	-de, e	4g	-de, e
4F#X	tu	4a	tu
4A	no'l	[4dd	no'l
=22	=22	=22	=22
1G	ve-	4dd]	.
.	.	4.cc	ve-
.	.	16bnXL	.
.	.	16aJ	.
.	.	4bnX	.
1G	-di,	2cc	-di,
.	.	2cc	Pie-
=23	=23	=23	=23
0r	.	2.a	-to-
.	.	2a	-so in-
.	.	2b-i	-vi-
.	.	4g	-sta
=24	=24	=24	=24
0r	.	2a	gli ul-
.	.	2a	-ti-
.	.	2g	-mi
.	.	2b-y	con-
=25	=25	=25	=25
2r	.	2a	-ge-
2d	Pie-	2b-y	-di,
2e-X	-to-	2r	.
2g	-so in	2b-y	Pie-
=26	=26	=26	=26
2.f	vi-	2cc	-to-
.	.	2dd	-so in
4enXi	-sta	.	.
2.d	gli ul-	1dd	vi-
4A	-ti-	.	.
=27	=27	=27	=27
4A	-mi	4cc#X	-sta
4F	con-	2dd	gli ul-
2E	-ge-	.	.
.	.	4ccnXi	-ti-
2D	-di,	2a	-mi
2d	Pie-	[2a	con-
=28	=28	=28	=28
2B-y	-to-	4a]	.
.	.	4.g	-ge-
2d	-so in	.	.
.	.	16f#XL	.
.	.	16eJ	.
.	.	4f#X	.
[1d	vi-	1g	-di,
=29	=29	=29	=29
2d]	.	1.a	gli ul-
2A	-sta	.	.
2.A	gli ul-	.	.
.	.	2a	-ti-
4A	-ti-	.	.
=30	=30	=30	=30
2D	-mi	4f	-mi
.	.	4d	con-
1D	con-	2.dd	-ge-
.	.	8ccL	.
.	.	8b-yJ	.
2d	-ge-	2a	.
=31	=31	=31	=31
0dl	-di.	0bnXl	-di.
==	==	==	==
*-	*-	*-	*-
!!!system-decoration: [*]
!!!RDF**kern: i = editorial accidental
!!!RDF**kern: l = terminal long
!!!ENC: Emiliano Ricciardi
!!!END: 2019
!!!EED: Ricciardi, Emiliano
!!!EEV: 2019/05/13
!!!YEC: Copyright 2018 Emiliano Ricciardi, All Rights Reserved
!!!ONB: Translated from MusicXML on 2019/05/13
!!@@BEGIN:	VERSEDATA
!!@CATALOGNUM:	Tsg16061
!!@LAST_MODIFIED: 2020/07/12
!!@TITLE:		Chiudesti i lumi, Armida: il Cielo avaro
!!@CANTO:		XVI
!!@OTTAVA:	61
!!@MANUSRC:	G-Al, G-Au, G-Br<sub>1</sub>, G-Br<sub>2</sub>, G-Cv, G-Es<sub>1</sub>, G-Es<sub>2</sub>, G-Es<sub>3</sub>, G-F, G-Fr, G-Fr<sub>1</sub>, G-Fr<sub>2</sub>, G-Mc<sub>1</sub>, G-Mg, G-Mr, G-Mt, G-N, G-Ol
!!@PRINTSRC:	G-1580CM, G-1581B, G-1581CV, G-1581R, G-1581MR, G-1581P, G-1581V, G-1581V<sub>bis</sub>, G-1582C, G-1582M, G-1582MC, G-1582P, G-1582SC, G-1582SC<sub>bis</sub>, G-1583S, G-1584O, G-1584S, G-1585C, G-1585S, G-1588S, G-1589S, G-1590B, G-1590S, G-1592S, G-1593S, G-1594C, G-1595C, G-1597C, G-1598C, G-1599C, G-1600C, G-1600S, G-1601C, G-1601R, G-1602C, G-1604C, G-1604Cl, G-1604F, G-1604P, G-1606B, G-1606B<sub>bis</sub>, G-1606L, G-1607ZR, G-1608DP, G-1609GC, G-1610M, G-1611S, G-1611V, G-1612P, G-1613M, G-1613P, G-1613V, G-1615P, G-1616M, G-1617P, G-1619B, G-1619V, G-1620M, G-1620S, G-1621R, G-1624I, G-1624MT, G-1625C, G-1625S, G-1625SS, G-1626C, G-1626Co, G-1627M, G-1628T, G-1628Tu, G-1630L, G-1630T, G-1632FT, G-1639CF, G-1642M, G-1643I, G-1644P, G-1644S
!!@@BEGIN:	VERSES
!!@ABOUTIT:
!!@ABOUTEN:
!!@EDITOR:	Angelo Solerti
!!@EDITION_TITLE: Gerusalemme liberata. Poema eroico di Torquato Tasso. Edizione critica sui manoscritti e le prime stampe.
!!@EDITION_LOC:	Florence
!!@EDITION_PUB:	G. Barbera
!!@EDITION_DATE:  1895
!!@EDITION_VOL:
!!@EDITION_PAGE:
!!@TRANSLATOR:	Emiliano Ricciardi and Amyrose McCue Gill
!!@VERSE:
!!	Chiudesti i lumi, Armida: il Cielo avaro
!!	Invidiò il conforto a’ tuoi martìri.
!!	Apri, misera, gli occhi; il pianto amaro
!!	Negli occhi al tuo nemico or che non miri?
!!	O s’udir tu ’l potessi, o come caro
!!	T’addolcirebbe il suon de’ suoi sospiri!
!!	Dà quanto ei puote; ei prende (e tu nol credi)
!!	Pietoso in vista gli ultimi congedi.
!!@TVERSE:
!!	You closed your eyes, Armida: ungenerous Heaven
!!	Begrudged [any] comfort for your torments.
!!	Open, miserable woman, your eyes; the bitter lament
!!	In the eyes of your enemy now why do you not see?
!!	Oh if you were able to hear it, oh, how dear
!!	To you would sweeten the sound of his sighs!
!!	He gives what he can; he bids (and you do not believe it),
!!	Compassionate in appearance, the last farewells.
!!@@END:		VERSES
!!@OTHER_CRIT_ED:  Torquato Tasso, <i>Gerusalemme liberata</i>, ed. Lanfranco Caretti, 2 vols. (Bari: Laterza, 1967).
!!@ATTRIBUTION_ABOUT:
!!@DATING:	mid-1560s through 1570s
!!@DEDICATEE:	Duke Alfonso II d'Este
!!@COMMENTARY:
!!@@END:		VERSEDATA
!!@@BEGIN: SETTING
!!@CATALOGNUM:	Tsg16061b
!!@CANTO:		XVI
!!@OTTAVA:	61
!!@TITLE:	Chiudesti i lumi Armida: il cielo avaro
!!@COMPOSER:	Il Verso, Antonio
!!@PARTS:		1 of 1
!!@PRINCEPSTITLE:	L'ottavo libro de'madrigali a cinque voci
!!@PRINCEPSLOC:	Venice
!!@NORMLOC:	Venice
!!@NORMPUB:	Ricciardo Amadino
!!@NORMPUBSHORT:	Amadino
!!@PRINCEPSPUB:	Ricciardo Amadino
!!@PRINCEPSYEAR:	1603
!!@PRINCEPSRISM:	I 10
!!@OVOICES:	5
!!@EXTANTVOICES:	2
!!@OMENSURATION:	C
!!@OCLEFS:	C1,C4
!!@OTIME:		
!!@OKEYSIG:	b-
!!@FINAL:		G
!!@TIMPEDITOR:	Ricciardi, Emiliano
!!@REPRINTS:	
!!@@END: SETTING
